src/lib/packages/icons/src/assets/line/bread-slice.svg

<svg width="24" height="24" viewBox="0 0 24 24" fill="none" xmlns="http://www.w3.org/2000/svg">
<path d="M14.77 14C14.77 14.41 14.44 14.75 14.02 14.75C13.6 14.75 13.27 14.41 13.27 14C13.27 13.59 13.6 13.25 14.02 13.25C14.44 13.25 14.77 13.59 14.77 14ZM10.02 11.25C9.61002 11.25 9.27002 11.59 9.27002 12C9.27002 12.41 9.61002 12.75 10.02 12.75C10.43 12.75 10.77 12.41 10.77 12C10.77 11.59 10.44 11.25 10.02 11.25ZM16.02 17.25C15.61 17.25 15.27 17.59 15.27 18C15.27 18.41 15.61 18.75 16.02 18.75C16.43 18.75 16.77 18.41 16.77 18C16.77 17.59 16.44 17.25 16.02 17.25ZM9.02002 16.25C8.61002 16.25 8.27002 16.59 8.27002 17C8.27002 17.41 8.61002 17.75 9.02002 17.75C9.43002 17.75 9.77002 17.41 9.77002 17C9.77002 16.59 9.44002 16.25 9.02002 16.25ZM15.77 9C15.77 8.59 15.44 8.25 15.02 8.25C14.61 8.25 14.27 8.59 14.27 9C14.27 9.41 14.61 9.75 15.02 9.75C15.43 9.75 15.77 9.41 15.77 9ZM8.77002 8C8.77002 7.59 8.44002 7.25 8.02002 7.25C7.61002 7.25 7.27002 7.59 7.27002 8C7.27002 8.41 7.61002 8.75 8.02002 8.75C8.43002 8.75 8.77002 8.41 8.77002 8ZM21.75 6.82001C21.75 7.78001 21.37 8.69 20.69 9.37L19.75 10.31V19.5C19.75 20.74 18.74 21.75 17.5 21.75H6.5C5.26 21.75 4.25 20.74 4.25 19.5V10.46C3.01 9.83999 2.25 8.61001 2.25 7.23001V6.81C2.25 5.29 3.21002 3.92 4.65002 3.41C6.12002 2.88 8.6 2.25 12 2.25C15.4 2.25 17.87 2.88 19.35 3.41C20.79 3.93 21.75 5.29 21.75 6.81V6.82001ZM20.25 6.82001C20.25 5.93001 19.68 5.12999 18.84 4.82999C17.48 4.33999 15.18 3.75 12 3.75C8.82 3.75 6.51997 4.32999 5.15997 4.82999C4.31997 5.12999 3.75 5.93001 3.75 6.82001V7.23999C3.75 8.03999 4.19998 8.77 4.91998 9.13L5.34003 9.34C5.59003 9.47 5.76001 9.73001 5.76001 10.01V19.51C5.76001 19.92 6.10001 20.26 6.51001 20.26H17.51C17.92 20.26 18.26 19.92 18.26 19.51V10.01C18.26 9.81001 18.34 9.62001 18.48 9.48001L19.64 8.32001C20.04 7.92001 20.26 7.38999 20.26 6.82999L20.25 6.82001Z" fill="currentColor"/>
</svg>

<svg xmlns="http://www.w3.org/2000/svg" width="24" height="24" fill="none"><path fill="currentColor" d="M14.77 14a.749.749 0 1 1-1.5 0 .749.749 0 1 1 1.5 0Zm-4.75-2.75c-.41 0-.75.34-.75.75s.34.75.75.75.75-.34.75-.75-.33-.75-.75-.75Zm6 6c-.41 0-.75.34-.75.75s.34.75.75.75.75-.34.75-.75-.33-.75-.75-.75Zm-7-1c-.41 0-.75.34-.75.75s.34.75.75.75.75-.34.75-.75-.33-.75-.75-.75ZM15.77 9a.749.749 0 1 0-1.498-.002A.749.749 0 0 0 15.77 9Zm-7-1a.749.749 0 1 0-1.498-.002A.749.749 0 0 0 8.77 8Zm12.98-1.18c0 .96-.38 1.87-1.06 2.55l-.94.94v9.19c0 1.24-1.01 2.25-2.25 2.25h-11c-1.24 0-2.25-1.01-2.25-2.25v-9.04a3.58 3.58 0 0 1-2-3.23v-.42c0-1.52.96-2.89 2.4-3.4C6.12 2.88 8.6 2.25 12 2.25c3.4 0 5.87.63 7.35 1.16 1.44.52 2.4 1.88 2.4 3.4v.01Zm-1.5 0c0-.89-.57-1.69-1.41-1.99-1.36-.49-3.66-1.08-6.84-1.08-3.18 0-5.48.58-6.84 1.08-.84.3-1.41 1.1-1.41 1.99v.42c0 .8.45 1.53 1.17 1.89l.42.21c.25.13.42.39.42.67v9.5c0 .41.34.75.75.75h11c.41 0 .75-.34.75-.75v-9.5c0-.2.08-.39.22-.53l1.16-1.16c.4-.4.62-.93.62-1.49l-.01-.01Z"/></svg>
